X:1
T:Miss Chatherine Pelham’s Reel
C:Robert Mackintosh
M:C
L:1/8
R:Reel
B:Robert Mackintosh – “A Fourth Collection of New Strathspey Reels, also some Famous old Reels” (1804, p. 30)
N:Dedicated to the Dutchess [sic] of Manchester
N:Robert “Red Rob” Mackintosh (c. 1745-1808) was a Scottish violinist and
N:composer active in Edinburgh at the end of the 18th century. Originally from
N:Tullymet, near Pitlochry, Perthshire.  He moved to London in the last decade
N:of his life.
Z:AK/Fiddler’s Companion
K:Gmin
d|~g2 bg a^fgd|ecdG ^FGAD|(g/^f/g/a/) bg a^fgd|ecad BGG:|
d|Bdgf e2 Ec|Acfe d2 DB|GBed cBAG|(^F/G/A) (Dd) (BGGd)|
(BGGg) eccf|(AFFf) dBBe|(GEEe) cAAd|^FD (d/c/B/A/ B)GG||

